symbolic/32x32/apps/crow-translate.svg

<svg xmlns="http://www.w3.org/2000/svg" width="32" height="32" x="0" y="0" version="1.1" xml:space="preserve">
 <circle style="opacity:0.2" cx="16" cy="17" r="14"/>
 <circle style="fill:#e4e4e4" cx="16" cy="16" r="14"/>
 <path style="opacity:0.2;fill:#ffffff" d="M 16 2 A 14 14 0 0 0 2 16 A 14 14 0 0 0 2.0214844 16.585938 A 14 14 0 0 1 16 3 A 14 14 0 0 1 29.978516 16.414062 A 14 14 0 0 0 30 16 A 14 14 0 0 0 16 2 z"/>
 <path style="opacity:0.1" d="M 19.261719 8 C 18.50661 8.6766077 17.721261 9.3976443 17.152344 10.224609 C 15.911068 12.032313 15.120891 14.321148 13.517578 15.882812 C 12.865907 16.514997 12.107369 17.065537 11.328125 17.550781 C 11.738436 17.612291 12.193205 17.653789 12.603516 17.568359 C 11.775997 18.101443 10.849633 18.609533 10.173828 19.320312 C 9.8393726 19.668867 9.4901263 20.022542 9.1660156 20.384766 C 9.4280623 20.22074 9.7394258 20.03455 10.056641 20.03125 C 10.580734 20.024417 11.583984 19.429688 11.583984 19.429688 C 11.583984 19.429687 9.6937659 20.674487 8.9179688 21.443359 C 8.4766262 21.880763 7.9769349 22.294056 7.5976562 22.792969 C 7.2562479 23.244006 7.2539062 23.238281 7.2539062 23.238281 C 7.8917839 22.999077 8.5361685 22.748501 9.2050781 22.601562 C 8.9361346 22.70066 8.8036419 22.749537 8.53125 22.841797 C 7.9381971 23.081002 7.2607599 23.261785 6.7539062 23.5625 C 5.8401898 24.105835 4.9332576 25.49874 4.2988281 26.417969 C 3.9609254 26.903213 3.4047451 27.317494 3.1289062 27.816406 C 2.9702986 28.103452 2.987463 28.403333 3.0253906 28.478516 C 3.3046775 29.001348 4.701344 29.443403 5.4667969 29.634766 C 6.3874094 29.860302 7.352585 29.962407 8.3007812 30 C 8.8628028 29.880397 9.4456631 29.64546 9.859375 29.242188 C 10.421397 28.695434 11.232503 28.164401 11.556641 27.457031 C 11.742832 27.057217 12.028712 26.825159 12.039062 26.818359 C 11.614959 27.532555 11.149891 28.222802 10.646484 28.878906 C 10.405124 29.189873 10.074219 29.583984 10.074219 29.583984 C 10.636241 29.378951 11.221761 29.043432 11.773438 28.951172 C 12.114789 28.893081 12.489905 28.732368 12.751953 28.486328 C 13.031239 28.223203 13.456822 28.119568 13.705078 27.849609 C 13.92151 27.613552 14.204432 27.193033 14.503906 26.726562 C 14.356281 26.816246 14.208227 26.904209 14.054688 26.980469 C 14.002557 27.007759 13.984068 27.006746 14.017578 26.972656 C 14.043638 26.945366 14.069653 26.921831 14.095703 26.894531 C 14.289289 26.703443 14.474987 26.492317 14.601562 26.277344 C 14.605263 26.270544 14.609521 26.264632 14.613281 26.257812 C 15.030235 25.47981 15.405247 24.663218 15.78125 23.861328 C 15.79986 23.830618 15.807366 23.813913 15.822266 23.783203 C 15.859496 23.714963 15.885687 23.640491 15.904297 23.558594 C 16.120221 22.52467 16.350991 21.322987 16.101562 20.289062 C 15.878194 19.371154 15.863281 19.595703 15.863281 19.595703 C 15.807441 20.039302 15.718006 20.487527 15.583984 20.914062 C 15.479745 21.238232 15.28973 21.520299 15.263672 21.6875 C 15.192932 22.127687 15.387269 22.57817 15.398438 22.605469 C 15.387277 22.588409 15.21887 22.32895 15.181641 21.943359 C 15.140701 21.523647 15.417062 21.071135 15.517578 20.685547 C 15.681381 20.061095 15.352853 19.158914 15.498047 18.705078 C 15.87405 17.507362 17.347895 15.658375 17.947266 14 C 18.259983 14.887198 18.502838 15.851957 18.837891 16.677734 C 18.867681 16.752804 18.879399 16.778261 18.849609 16.744141 C 18.693239 16.413179 18.275391 15.748047 18.275391 15.748047 C 18.178601 15.782187 18.715471 17.670859 18.886719 18.527344 C 18.968619 18.936819 19.02728 19.364949 18.986328 19.78125 C 18.986328 19.78125 18.939081 19.909731 18.931641 19.947266 C 18.927941 19.960916 18.919922 19.999526 18.919922 20.009766 L 18.919922 20.011719 C 18.916222 20.032189 18.911963 20.050329 18.908203 20.074219 C 18.904503 20.087859 18.904091 20.097678 18.900391 20.111328 C 18.896691 20.135208 18.890459 20.166069 18.886719 20.193359 C 18.883019 20.207009 18.878906 20.224621 18.878906 20.238281 C 18.856566 20.350888 18.826283 20.491 18.789062 20.658203 C 18.788324 20.661448 18.787846 20.664724 18.787109 20.667969 C 18.78524 21.976378 18.895008 23.354316 19.089844 24.625 C 19.248447 25.656997 19.341797 25.445312 19.341797 25.445312 C 19.434893 24.228786 19.310054 22.747801 19.703125 21.640625 C 19.96862 20.892256 20.393329 20.083806 20.53125 19.277344 C 20.672611 18.45038 20.669127 17.56817 20.648438 16.720703 C 20.620853 15.623778 20.551643 14.517336 20.396484 13.423828 C 20.5413 13.943244 20.755613 14.488399 20.783203 15.021484 C 20.810783 15.527231 20.824101 16.050408 20.837891 16.566406 C 20.95512 15.930805 21.045523 15.251322 20.976562 14.605469 C 20.911052 14.010875 21.024494 13.402701 20.958984 12.818359 C 20.872785 12.052903 20.844994 11.225913 20.589844 10.498047 C 20.345036 9.7872679 20.027988 9.0755248 19.841797 8.3613281 C 19.765941 8.0742827 19.261719 8 19.261719 8 z"/>
 <path style="fill:#3f3f3f" d="m 20.958704,11.818305 c 0.06551,0.584342 -0.04827,1.192606 0.01724,1.7872 0.06896,0.645853 -0.02069,1.325877 -0.137919,1.961478 -0.01379,-0.515998 -0.02759,-1.038831 -0.05517,-1.544578 -0.02759,-0.533085 -0.241359,-1.079839 -0.386175,-1.599255 0.155159,1.093508 0.224119,2.200683 0.251703,3.297608 0.02069,0.847467 0.02413,1.729108 -0.117231,2.556072 -0.137921,0.806462 -0.562022,1.616341 -0.827517,2.36471 -0.393071,1.107176 -0.268943,2.586827 -0.362039,3.803354 0,0 -0.0931,0.211867 -0.251703,-0.82013 -0.213778,-1.394222 -0.332539,-2.921714 -0.304957,-4.339856 v -0.03418 c 0,-0.01709 -0.0034,-0.04784 -0.0034,-0.04784 0,0 -0.04483,0.129853 -0.05172,0.167443 -0.0034,0.01367 -0.01034,0.05126 -0.01034,0.06151 v 0.0033 c -0.0034,0.01709 -0.0069,0.0376 -0.01035,0.06151 -0.0034,0.01367 -0.0034,0.02391 -0.0069,0.03759 -0.0034,0.02391 -0.01034,0.05468 -0.0138,0.08201 -0.0034,0.01367 -0.0069,0.03075 -0.0069,0.04442 -0.02069,0.112769 -0.04827,0.252873 -0.08275,0.420318 -0.168952,0.803044 -1.191728,1.165519 -1.305512,1.975398 -0.0034,0.01709 -1.554464,0.143457 -0.0069,0.04784 -0.0931,0.560422 -0.143476,0.753332 -0.491722,1.146312 -0.368935,0.416899 -0.135558,-0.254637 -0.635517,0.03925 0.478013,0.122955 0.02069,-0.01367 0,0 -0.66891,0.451072 1.369934,-0.408332 0.669994,-0.03244 -0.04827,0.02733 0.350627,-0.385916 -0.03448,-0.0068 1.272556,-0.553291 -0.784008,1.150933 -0.759876,1.12359 0.179296,-0.191364 -0.117232,0.215283 0,0 0.968651,-1.335036 -0.0034,0.0068 0,0 0.386175,-0.779124 -0.223888,-0.281302 0.124359,-1.084345 0,0 -0.09655,0.143522 -0.217223,0.314382 -0.151711,0.211867 -0.351695,0.471575 -0.434446,0.570675 -0.655118,0.785958 -1.117147,1.927306 -1.803297,2.675675 -0.248256,0.269959 -0.672358,0.372475 -0.951644,0.6356 -0.262048,0.24604 -0.637878,0.406649 -0.979229,0.46474 -0.551677,0.09226 -1.137835,0.427152 -1.699857,0.632185 0,0 0.331006,-0.392979 0.572366,-0.703946 0.503407,-0.656104 0.968884,-1.34638 1.392987,-2.060576 -0.01035,0.0068 -0.296527,0.239204 -0.482718,0.639018 -0.324138,0.70737 -1.134414,1.237038 -1.6964364,1.783791 C 9.4459127,28.64461 8.863203,28.880397 8.3011814,29 7.3529852,28.962407 6.3875491,28.859893 5.4669366,28.634357 4.7014837,28.442994 3.3050491,28.002173 3.0257622,27.479341 2.9878346,27.404158 2.9705941,27.103448 3.1292018,26.816402 3.4050407,26.31749 3.9601665,25.904007 4.2980692,25.418763 4.9324987,24.499534 5.8393191,23.105312 6.7530356,22.561977 7.2598892,22.261262 7.9391433,22.08015 8.5321962,21.840945 c 0.2723919,-0.09226 0.4034145,-0.140106 0.672358,-0.239204 -0.6689096,0.146939 -1.3136827,0.396396 -1.9515604,0.6356 0,0 0.00339,0.0068 0.3447983,-0.444237 0.3792786,-0.498913 0.8792362,-0.912394 1.3205788,-1.349798 0.7757971,-0.768872 2.6652941,-2.012736 2.6652941,-2.012736 0,0 -1.003365,0.594595 -1.527458,0.601428 -0.3172148,0.0033 -0.6275341,0.187947 -0.8895808,0.351973 0.3241107,-0.362224 0.6723573,-0.714197 1.0068128,-1.062752 0.675805,-0.71078 1.603312,-1.219944 2.430831,-1.753028 -0.410311,0.08543 -0.865445,0.04442 -1.275756,-0.01709 0.779244,-0.485244 1.537801,-1.035415 2.189472,-1.667599 1.603313,-1.561664 2.392901,-3.851194 3.634177,-5.6588985 C 17.72108,8.3976389 18.507221,7.6766077 19.26233,7 c 0,0 0.503407,0.075179 0.579263,0.3622244 0.186191,0.7141967 0.503405,1.4249766 0.748213,2.1357559 0.25515,0.7278657 0.282735,1.5548297 0.368934,2.3202857 z"/>
 <path style="opacity:0.1" d="m 18.27558,15.747137 c -0.09679,0.03414 0.439293,1.924535 0.610541,2.78102 0.0819,0.409475 0.141468,0.836012 0.100516,1.252313 0,0 -0.0484,0.129666 -0.05584,0.167201 -0.0037,0.01365 -0.01116,0.05118 -0.01116,0.06142 0,0 0,0 0,0.0033 -0.0037,0.02047 -0.0074,0.03753 -0.01116,0.06142 -0.0037,0.01364 -0.0037,0.02388 -0.0074,0.03753 -0.0037,0.02388 -0.01116,0.0546 -0.0149,0.08189 -0.0037,0.01365 -0.0074,0.03071 -0.0074,0.04437 -0.02234,0.112607 -0.05213,0.25251 -0.08935,0.419713 -0.182418,0.801889 -0.312717,1.614015 -0.43557,2.422729 -0.0037,0.01706 -0.0037,0.03071 -0.0074,0.04777 -0.100516,0.559616 -0.29038,0.798476 -0.666384,1.190892 -0.398339,0.416299 -0.878582,0.938379 -1.418388,1.231838 -0.01489,0.01023 -0.03723,0.02047 -0.05956,0.03414 -0.722224,0.450423 -1.392329,1.020276 -2.148058,1.395629 -0.05213,0.02729 -0.07074,0.02729 -0.03723,-0.0068 0.02606,-0.02729 0.05213,-0.05118 0.07818,-0.07848 0.193586,-0.191088 0.379726,-0.402651 0.506301,-0.617624 0.0037,-0.0068 0.0074,-0.01365 0.01116,-0.02047 0.416954,-0.778003 0.792957,-1.593541 1.16896,-2.395431 0.01861,-0.03071 0.02606,-0.04777 0.04096,-0.07848 0.03723,-0.06824 0.06329,-0.143315 0.0819,-0.225212 0.215924,-1.033924 0.446737,-2.235052 0.197309,-3.268977 -0.223368,-0.917908 -0.23826,-0.692696 -0.23826,-0.692696 -0.05584,0.443599 -0.145188,0.890608 -0.27921,1.317144 -0.104239,0.32417 -0.294103,0.607391 -0.320161,0.774592 -0.07074,0.440187 0.122852,0.890609 0.134021,0.917908 -0.01116,-0.01706 -0.178695,-0.276395 -0.215924,-0.661986 -0.04094,-0.419712 0.234538,-0.873547 0.335054,-1.259135 0.163803,-0.624452 -0.163804,-1.525296 -0.01861,-1.979132 0.376003,-1.197716 1.850234,-3.04718 2.449605,-4.705555 0.312717,0.887198 0.554699,1.852876 0.889752,2.678653 0.02979,0.07507 0.04095,0.09895 0.01116,0.06483 -0.15637,-0.330962 -0.573325,-0.996358 -0.573325,-0.996358 z"/>
 <path style="fill:#41d444" d="m 18.27558,14.747137 c -0.09679,0.03414 0.439293,1.924535 0.610541,2.78102 0.0819,0.409475 0.141468,0.836012 0.100516,1.252313 0,0 -0.0484,0.129666 -0.05584,0.167201 -0.0037,0.01365 -0.01116,0.05118 -0.01116,0.06142 0,0 0,0 0,0.0033 -0.0037,0.02047 -0.0074,0.03753 -0.01116,0.06142 -0.0037,0.01364 -0.0037,0.02388 -0.0074,0.03753 -0.0037,0.02388 -0.01116,0.0546 -0.0149,0.08189 -0.0037,0.01365 -0.0074,0.03071 -0.0074,0.04437 -0.02234,0.112607 -0.05213,0.25251 -0.08935,0.419713 -0.182418,0.801889 -0.312717,1.614015 -0.43557,2.422729 -0.0037,0.01706 -0.0037,0.03071 -0.0074,0.04777 -0.100516,0.559616 -0.29038,0.798476 -0.666384,1.190892 -0.398339,0.416299 -0.878582,0.938379 -1.418388,1.231838 -0.01489,0.01023 -0.03723,0.02047 -0.05956,0.03414 -0.722224,0.450423 -1.392329,1.020276 -2.148058,1.395629 -0.05213,0.02729 -0.07074,0.02729 -0.03723,-0.0068 0.02606,-0.02729 0.05213,-0.05118 0.07818,-0.07848 0.193586,-0.191088 0.379726,-0.402651 0.506301,-0.617624 0.0037,-0.0068 0.0074,-0.01365 0.01116,-0.02047 0.416954,-0.778003 0.792957,-1.593541 1.16896,-2.395431 0.01861,-0.03071 0.02606,-0.04777 0.04096,-0.07848 0.03723,-0.06824 0.06329,-0.143315 0.0819,-0.225212 0.215924,-1.033924 0.446737,-2.235052 0.197309,-3.268977 -0.223368,-0.917908 -0.23826,-0.692696 -0.23826,-0.692696 -0.05584,0.443599 -0.145188,0.890608 -0.27921,1.317144 -0.104239,0.32417 -0.294103,0.607391 -0.320161,0.774592 -0.07074,0.440187 0.122852,0.890609 0.134021,0.917908 -0.01116,-0.01706 -0.178695,-0.276395 -0.215924,-0.661986 -0.04094,-0.419712 0.234538,-0.873547 0.335054,-1.259135 0.163803,-0.624452 -0.163804,-1.525296 -0.01861,-1.979132 0.376003,-1.197716 1.850234,-3.04718 2.449605,-4.705555 0.312717,0.887198 0.554699,1.852876 0.889752,2.678653 0.02979,0.07507 0.04095,0.09895 0.01116,0.06483 -0.15637,-0.330962 -0.573325,-0.996358 -0.573325,-0.996358 z"/>
 <path style="opacity:0.2" d="m 19.458771,1.9997663 c 0.55465,2.0490267 0.565248,3.454812 0.469863,5.5462324 -0.105984,2.275126 -0.964456,4.6633023 -1.706345,6.8112483 -0.78075,2.264528 -2.031362,4.179308 -3.207787,6.231867 -1.081038,1.882985 -2.794449,3.172343 -4.479596,4.511276 C 9.0652591,26.266216 7.4401685,27.156483 5.6914305,27.799453 5.1473786,27.99729 4.5397361,28.067946 3.963889,28.08561 3.5399524,28.09621 3.2361312,28.07148 3.222,28.07148 c 1.2506129,-0.261427 2.5188898,-0.639437 3.6281903,-1.278874 3.0770733,-1.777001 5.9739727,-3.907167 7.7792367,-7.00897 1.148162,-1.967772 2.232732,-3.900216 2.988753,-6.062293 0.695962,-1.999568 1.455515,-4.0945206 1.663951,-6.2071381 0.158975,-1.6144916 0.15191,-2.5680779 -0.13778,-4.1719712 0.09892,-0.3356165 0.141312,-0.5051911 0.215501,-0.8408076 0.04239,-0.2049027 0.06359,-0.3038212 0.09892,-0.5016582 z"/>
 <path style="fill:#666666" d="m 19.458771,0.9997663 c 0.55465,2.0490267 0.565248,3.454812 0.469863,5.5462324 -0.105984,2.275126 -0.964456,4.6633023 -1.706345,6.8112483 -0.78075,2.264528 -2.031362,4.179308 -3.207787,6.231867 -1.081038,1.882985 -2.794449,3.172343 -4.479596,4.511276 C 9.0652591,25.266216 7.4401685,26.156483 5.6914305,26.799453 5.1473786,26.99729 4.5397361,27.067946 3.963889,27.08561 3.5399524,27.09621 3.2361312,27.07148 3.222,27.07148 c 1.2506129,-0.261427 2.5188898,-0.639437 3.6281903,-1.278874 3.0770733,-1.777001 5.9739727,-3.907167 7.7792367,-7.00897 1.148162,-1.967772 2.232732,-3.900216 2.988753,-6.062293 0.695962,-1.999568 1.455515,-4.0945206 1.663951,-6.2071381 0.158975,-1.6144916 0.15191,-2.5680779 -0.13778,-4.1719712 0.09892,-0.3356165 0.141312,-0.5051911 0.215501,-0.8408076 0.04239,-0.2049027 0.06359,-0.3038212 0.09892,-0.5016582 z"/>
</svg>

<svg xmlns="http://www.w3.org/2000/svg" width="32" height="32" xml:space="preserve"><circle style="opacity:.2" cx="16" cy="17" r="14"/><circle style="fill:#e4e4e4" cx="16" cy="16" r="14"/><path style="opacity:.2;fill:#fff" d="M16 2A14 14 0 0 0 2 16a14 14 0 0 0 .021.586A14 14 0 0 1 16 3a14 14 0 0 1 13.979 13.414A14 14 0 0 0 30 16 14 14 0 0 0 16 2z"/><path style="opacity:.1" d="M19.262 8c-.755.677-1.54 1.398-2.11 2.225-1.24 1.807-2.031 4.096-3.634 5.658-.652.632-1.41 1.183-2.19 1.668.41.061.865.103 1.276.017-.828.533-1.754 1.042-2.43 1.752-.335.349-.684.703-1.008 1.065.262-.164.573-.35.89-.354.525-.007 1.528-.601 1.528-.601s-1.89 1.244-2.666 2.013c-.441.438-.941.851-1.32 1.35-.342.451-.344.445-.344.445.638-.239 1.282-.49 1.951-.636-.269.099-.401.148-.674.24-.593.239-1.27.42-1.777.72-.914.544-1.82 1.937-2.455 2.856-.338.485-.894.9-1.17 1.398-.159.287-.142.587-.104.663.28.522 1.676.964 2.442 1.156.92.225 1.886.327 2.834.365.562-.12 1.145-.355 1.558-.758.562-.547 1.374-1.078 1.698-1.785.186-.4.472-.632.482-.639-.424.715-.89 1.405-1.393 2.06-.24.312-.572.706-.572.706.562-.205 1.148-.54 1.7-.633.34-.058.716-.219.978-.465.28-.263.705-.366.953-.636.217-.236.5-.657.799-1.123-.148.09-.296.177-.45.253-.051.028-.07.027-.036-.007.026-.028.052-.051.078-.078a3.18 3.18 0 0 0 .506-.618c.003-.006.008-.012.011-.02.417-.777.792-1.594 1.168-2.396.019-.03.026-.047.041-.078a.863.863 0 0 0 .082-.224c.216-1.034.447-2.236.198-3.27-.224-.918-.239-.693-.239-.693a7.58 7.58 0 0 1-.279 1.318c-.104.324-.294.606-.32.773-.071.44.123.891.134.918a1.555 1.555 0 0 1-.216-.662c-.041-.42.235-.872.336-1.257.163-.625-.165-1.527-.02-1.98.376-1.199 1.85-3.048 2.45-4.706.312.887.555 1.852.89 2.678.03.075.041.1.012.066-.157-.33-.575-.996-.575-.996-.096.034.44 1.923.612 2.78.082.409.14.837.1 1.253 0 0-.048.129-.055.166a.448.448 0 0 0-.012.063v.002l-.012.062c-.003.014-.004.024-.008.037-.003.024-.01.055-.013.082a19.453 19.453 0 0 1-.098.465l-.002.01a26.417 26.417 0 0 0 .303 3.957c.158 1.032.252.82.252.82.093-1.216-.032-2.697.361-3.804.266-.749.69-1.557.828-2.364.142-.827.138-1.709.117-2.556a28.615 28.615 0 0 0-.252-3.297c.145.52.36 1.064.387 1.597.028.506.041 1.03.055 1.545.117-.635.208-1.315.139-1.96-.066-.595.047-1.203-.018-1.788-.086-.765-.114-1.592-.37-2.32-.244-.71-.561-1.422-.747-2.137-.076-.287-.58-.361-.58-.361z"/><path style="fill:#3f3f3f" d="M20.959 11.818c.065.585-.049 1.193.017 1.788.069.645-.02 1.325-.138 1.961-.014-.516-.028-1.039-.055-1.545-.028-.533-.242-1.08-.386-1.599.155 1.094.224 2.2.251 3.298.021.847.025 1.729-.117 2.556-.138.806-.562 1.616-.827 2.365-.393 1.107-.27 2.586-.362 3.803 0 0-.094.212-.252-.82a26.069 26.069 0 0 1-.305-4.34v-.034c0-.017-.003-.048-.003-.048s-.045.13-.052.167a.465.465 0 0 0-.01.062v.003a1.19 1.19 0 0 0-.01.062c-.004.013-.004.024-.008.037-.003.024-.01.055-.014.082a20.406 20.406 0 0 1-.09.465c-.168.803-1.191 1.166-1.305 1.975-.003.017-1.554.144-.007.048-.093.56-.143.754-.491 1.147-.37.416-.136-.255-.636.039.478.123.02-.014 0 0-.669.45 1.37-.409.67-.033-.048.028.35-.386-.034-.006 1.272-.554-.784 1.15-.76 1.123.18-.191-.117.215 0 0 .968-1.335-.004.007 0 0 .386-.779-.224-.281.124-1.084 0 0-.096.143-.217.314-.152.212-.352.472-.435.57-.655.787-1.117 1.928-1.803 2.677-.248.27-.672.372-.951.635-.263.246-.638.407-.98.465-.551.092-1.138.427-1.7.632 0 0 .331-.393.573-.704a21.01 21.01 0 0 0 1.393-2.06c-.01.006-.297.239-.483.639-.324.707-1.134 1.237-1.696 1.783-.414.404-.997.64-1.559.759-.948-.038-1.913-.14-2.834-.366-.766-.191-2.162-.632-2.441-1.155-.038-.075-.055-.376.103-.663.276-.499.831-.912 1.17-1.397.633-.92 1.54-2.314 2.454-2.857.507-.3 1.186-.482 1.78-.721.272-.092.403-.14.672-.24-.67.148-1.314.397-1.952.636 0 0 .003.007.345-.444.38-.499.879-.912 1.32-1.35.776-.769 2.666-2.012 2.666-2.012s-1.004.594-1.528.601c-.317.003-.627.188-.89.352.325-.362.673-.714 1.007-1.063.676-.71 1.604-1.22 2.431-1.753-.41.086-.865.045-1.275-.017.779-.485 1.537-1.035 2.189-1.667 1.603-1.562 2.393-3.852 3.634-5.66.57-.826 1.355-1.547 2.11-2.224 0 0 .504.075.58.362.186.714.503 1.425.748 2.136.255.728.283 1.555.369 2.32z"/><path style="opacity:.1" d="M18.276 15.747c-.097.034.439 1.925.61 2.781.082.41.142.836.1 1.252 0 0-.048.13-.055.168a.428.428 0 0 0-.011.061v.003l-.012.062c-.003.013-.003.024-.007.037l-.015.082a19.078 19.078 0 0 1-.097.464 33.768 33.768 0 0 0-.435 2.423c-.004.017-.004.03-.008.048-.1.56-.29.798-.666 1.19-.398.417-.879.94-1.418 1.233-.015.01-.038.02-.06.034-.722.45-1.392 1.02-2.148 1.395-.052.028-.07.028-.037-.006.026-.028.052-.052.078-.079.194-.191.38-.403.506-.618l.011-.02c.417-.778.793-1.594 1.17-2.395.018-.031.025-.048.04-.079a.867.867 0 0 0 .082-.225c.216-1.034.447-2.235.198-3.27-.224-.917-.239-.692-.239-.692-.055.444-.145.89-.279 1.317-.104.324-.294.608-.32.775-.07.44.123.89.134.918a1.56 1.56 0 0 1-.216-.662c-.04-.42.235-.874.335-1.26.164-.624-.164-1.525-.018-1.978.376-1.198 1.85-3.048 2.45-4.706.312.887.554 1.853.889 2.679.03.075.04.099.011.064-.156-.33-.573-.996-.573-.996z"/><path style="fill:#41d444" d="M18.276 14.747c-.097.034.439 1.925.61 2.781.082.41.142.836.1 1.252 0 0-.048.13-.055.168a.428.428 0 0 0-.011.061v.003l-.012.062c-.003.013-.003.024-.007.037l-.015.082a19.078 19.078 0 0 1-.097.464 33.768 33.768 0 0 0-.435 2.423c-.004.017-.004.03-.008.048-.1.56-.29.798-.666 1.19-.398.417-.879.94-1.418 1.233-.015.01-.038.02-.06.034-.722.45-1.392 1.02-2.148 1.395-.052.028-.07.028-.037-.006.026-.028.052-.052.078-.079.194-.191.38-.403.506-.618l.011-.02c.417-.778.793-1.594 1.17-2.395.018-.031.025-.048.04-.079a.867.867 0 0 0 .082-.225c.216-1.034.447-2.235.198-3.27-.224-.917-.239-.692-.239-.692-.055.444-.145.89-.279 1.317-.104.324-.294.608-.32.775-.07.44.123.89.134.918a1.56 1.56 0 0 1-.216-.662c-.04-.42.235-.874.335-1.26.164-.624-.164-1.525-.018-1.978.376-1.198 1.85-3.048 2.45-4.706.312.887.554 1.853.889 2.679.03.075.04.099.011.064-.156-.33-.573-.996-.573-.996z"/><path style="opacity:.2" d="M19.459 2c.554 2.049.565 3.455.47 5.546-.106 2.275-.965 4.663-1.707 6.811-.78 2.265-2.031 4.18-3.207 6.232-1.082 1.883-2.795 3.172-4.48 4.511a17.405 17.405 0 0 1-4.844 2.7c-.544.197-1.151.268-1.727.286-.424.01-.728-.015-.742-.015 1.25-.26 2.519-.639 3.628-1.278 3.077-1.777 5.974-3.908 7.78-7.01 1.148-1.967 2.232-3.9 2.988-6.062.696-2 1.456-4.094 1.664-6.207.16-1.614.152-2.568-.138-4.172.1-.335.142-.505.216-.84.042-.205.063-.304.099-.502z"/><path style="fill:#666" d="M19.459 1c.554 2.049.565 3.455.47 5.546-.106 2.275-.965 4.663-1.707 6.811-.78 2.265-2.031 4.18-3.207 6.232-1.082 1.883-2.795 3.172-4.48 4.511a17.405 17.405 0 0 1-4.844 2.7c-.544.197-1.151.268-1.727.286-.424.01-.728-.015-.742-.015 1.25-.26 2.519-.639 3.628-1.278 3.077-1.777 5.974-3.908 7.78-7.01 1.148-1.967 2.232-3.9 2.988-6.062.696-2 1.456-4.094 1.664-6.207.16-1.614.152-2.568-.138-4.172.1-.335.142-.505.216-.84.042-.205.063-.304.099-.502z"/></svg>
